X:1
T:Disusata pieta
T:Disusata pieta
T:Girolamo Scotto
T:Source : Madrigali a tre voci---Venetia---G.Scotto---1541. Editor : André Vierendeels (17/06/16).
T:Notes : Original clefs : C3, C4, F4 Editorial accidentals above the staff Original note values have been halved Text by Francesco Petrarca (Canzione) "Septimi toni" 
T:©
T:©
T:©
T:©
T:©
T:©
T:©
C:Girolamo Scotto
Z:©
%%score [ 1 2 3 ]
L:1/8
Q:1/4=96
M:2/2
K:C
V:1 treble-8 nm="Tenor 1" snm="T 1"
V:2 treble-8 nm="Tenor 2" snm="T 2"
V:3 bass nm="Bass" snm="B"
V:1
 z8 | z8 | g6 e2 | f4 f2 d2 | e3 d c4 | B2 d2 e2 g2- | g2 f2 g3 f | e2 d2 c2 A2 | B2 d4 c2 | %9
w: ||Di- su-|sa- ta pie-|ta _ _|_ ne va- *|* ghi lu- *|* * mi, par-|mi ve- *|
 d2 A2 B2 c2 | d2 e2 d2 g2 | f2 e3 f g2- | gfed e2 d2- | dc c4 B2 | c4 z4 | z8 | z2 d2 d2 d2 | %17
w: der, par- mi ve-|* der al- la|ne- mi- * *||ca _ mi- *|a||e l'an- ti-|
 f2 e2 d2 d2 | e2 g4 f2 | gfed c2 e2- | e2 d2 e2 c2 | f4 e4 | z8 | z2 d2 e3 d | c2 B2 c3 B | %25
w: chi can- giar a-|* mor con-|stu- * * * * *||* mi,||e mia sor-|te pro- var _|
 A2 c4 BA | B2 c2 ABcd | ef g4 f2 | g2 d2 e2 e2 | f3 f e4 | d4 c4 | B2 B2 ABcd | ef g3 f e2- | %33
w: _ non co- *|si ri- a, _ _ _|_ _ _ _|* par- la'un pen-|sier non piu|_ da|gli'oc- chi fiu- * * *||
 e2 d2 e3 d/c/ | B2 e3 def | g2 d2 e2 f2- | fe d4 c2 | d4 e4 | z8 | z2 g2 g2 g2 | f6 e2 | %41
w: ||mi, per- che men-|* * tre co-|ste- i,||per- che men-|tre co-|
 d3 e f2 f2 | c2 d2 A2 c2- |"^b" c2 B2 cBAG | F2 A3 G G2- | G2 F2 G3 A | _B2 A3 GAB | c2 d3 c c2- | %48
w: ste- * i, nel|spec- chio a- pri-||a sue _ chia-|* * re _|_ _ _ _ _|* lu- * *|
 c2 B2 c4- | c8 | z2 c2 d2 e2 | c2 A2 B2 d2- | dc c4 B2 | c2 G2 G2 G2 | _B2 B2 A4 | G2 d2 d2 d2 | %56
w: * * ce,|_|i- vi en-|tro'e vi- de'il co-||re, no- stro sta-|to do- glio-|so, et li ne|
 e2 f4 ed | c4 d2 e2 | f4 e2 B2 | B2 B2 c4- | c2 B2 c2 A2 | B2 c4 B2 | A4 G2 g2- | gf e4 d2 | %64
w: ven- ne'a- * *||mo- re, et|li ne ven-|* ne'a- mo- *||* re, [a-||
 e4 d4- | d8 |] %66
w: mo- re.]|_|
V:2
 d6 B2 | c4 A2 A2 | G3 A B2 c2 | A2 _B2 A2 G2- | G2 E2 F2 EF | GA B2 c2 B2 | A4 G2 E2 | G2 G4 F2 | %8
w: Di- su-|sa- ta pie-|ta _ _ _|_ _ ta ne|_ va- ghi lu- *||* mi, par-|mi ve- der|
 G3 F E4 | D2 F4 G2- | G A2 G3 Bc | dc c4 B2 | c4 z2 G2 | G2 G2 A2 GF | E2 G2 A2 B2 | c3 B A2 G2- | %16
w: al- la ne-|mi- * *|* * * ca _|_ _ mi- *|a, e|l'an- ti- chi _ _|_ can- giar a-|mor _ _ con-|
 G2 F2 GABc | d2 c4 B2 | cBAG A4 | G4 A2 c2 | B4 z2 A2 | A2 A2 c4 | B4 A2 c2- | c2 B2 c4 | %24
w: * * stu- * * *||||mi, e|mia sor- te|pro- * *|* * var|
 z2 G2 A3 G | F2 E3 F G2- | G2 FE F4 | E4 z2 A2 | B2 B2 c3 c | d2 A3 B c2- | cB B3 A A2- | %31
w: non co- *|* si _ _|_ _ _ ri-|a, par-|la'un pen- sier non|piu da _ gli'oc-|* * chi _ fiu-|
"^#" AG/F/ G2 A4 | z8 | z4 z2 G2 | G2 G2 c4- | c2 B2 A4- | A2 A2 G2 E2 |"^b" F2 B3 A A2- | %38
w: * * * * mi,||per-|che men- tre|_ co- stei,|_ nel spec- chio|a- pri- * *|
"^#" AG G4 F2 | G2 B2 c2 G2 | A2 _B2 A4 |"^b" D2 B3 A A2- | AG F4 E2 | D4 C4 | z8 | z4 z2 D2 | %46
w: |a, sue chia- re|lu- * *|ce, sue _ chia-|* * * re|lu- ce,||i-|
 D2 D2 F4- | F2 D2 E2 F2 | D4 C2 F2 | E3 D E3 F | G2 A3 G G2- | G2 F2 G2 D2 | E2 F2 D4 | %53
w: vi en- tro|_ e vi- de'il|co- re, e|vi- * * de'il|co- * * *|||
 C2 E2 E2 E2 | D2 G3 F/E/ F2 | G2 B2 B2 B2 | c2 d2 A4 | A3 G AB c2- | c2 B2 c2 G2 | G2 G2 A4- | %60
w: re, no- stro sta-|to do- * * gli-|o- so, no- stro|sta- to do-|gli- * * * o-|* * so, et|li ne ven-|
 A2 G2 AGFE | D2 E3 F G2- |"^#" G2 F2 G4- | G8- | G8- | G8 |] %66
w: * ne'a- mo- * * *||* * re.|_|||
V:3
 z8 | z8 | z8 | D,6 B,,2 | C,4 A,,2 A,,2 | G,,4 z2 G,,2 | D,4 G,,2 C,2- | C,2 B,,2 A,,4 | %8
w: |||Di- su-|sa- ta pie-|ta, ne|va- ghi lu-||
 G,,4 z2 A,,2 | B,,2 D,4 C,2 | B,,2 C,2 G,,4 | A,,4 E,4 | C,6 B,,2 | C,2 E,2 D,4 | C,6 D,2 | %15
w: mi, par-|mi ve- *||der al-|la ne-|mi- ca mi-|a, ne-|
 E,2 F,4 E,2 | D,4 G,,4 | z2 C,2 G,2 G,2 | C,4 D,4 | E,2 E,2 F,2 C,2 | G,3 F, E,2 F,2 | %21
w: mi- * ca|mi- a,|e l'an- ti-|chi can-|giar a- mo- re|con- * * stu-|
 D,4 A,,2 A,2- | A,2 G,2 F,2 E,2 | D,4 C,2 A,,2 | E,3 D, C,2 A,,2 | D,2 C,2 A,,2 E,2- | %26
w: * mi, e|_ mia sor- te|pro- var non|co- * * si|ri- * a, non|
 E,2 C,2 D,2 A,,2- | A,,2 G,,2 D,4 | G,,4 z4 | z8 | z4 z2 A,,2 | E,2 E,2 F,3 F, | E,3 F, G,2 A,2 | %33
w: _ co- si ri-||a,||par-|la'un pen- sier non|piu _ _ da|
 F,4 E,4- | E,2 E,2 A,,2 C,D, | E,F, G,4 F,2 | D,2 F,2 E,4 | D,4 C,4 |"^b""^b" B,,4 A,,4 | %39
w: gli'oc- chi|_ fiu- mi, per- *|* * men- tre|co- ste- i,|nel spec-|chi'a- pri-|
 G,,4 z4 | z4 z2 A,,2 | _B,,2 G,,2 D,3 E, |"^-natural" F,2 D,4 A,,2 | _B,,2 G,,2 A,,4 | %44
w: a,|sue|chia- * * *|* * re|lu- ce, chia-|
"^b" D,4 C,2 B,,2 | A,,4 G,,4 | z8 | z8 | z4 z2 A,,2 | A,,2 A,,2 C,4- | C,2 A,,2 B,,2 C,2 | %51
w: re lu- *|* ce,|||i-|vi en- tro|_ e vi- de'il|
 A,,4 G,,4 | z8 | z2 C,2 C,2 C,2 | G,,2 G,,2 D,4 | G,,8 | z2 D,2 D,2 D,2 | F,6 E,2 | D,4 C,2 E,2 | %59
w: co- re,||no- stro sta-|to do- glio-|so,|et li ne|ven- ne'a-|mo- re, et|
 E,2 E,2 A,,3 B,, | C,D, E,2 A,,2 D,2 | G,,2 C,2 A,,2 G,,2 | D,4 G,,4- | G,,2 C,4 B,,2 | %64
w: li ne ven- *|* * ne'a- mo- *||* re,|_ a- *|
 C,4 G,,4- | G,,8 |] %66
w: mo- re.|_|

